X:626
T:Roaring Jelly
M:6/8
L:1/8
S:Colin Hume's website,  colinhume.com  - chords can also be printed below the stave.
Q:3/8=120
K:D
P:A
|: "D"DED F2A | "D"d2f "A"ecA | "G"G2B "D"F2A | "Em"E2F "A7"GFE |\
"D"DED F2A | "D"d2f "A"ecA | "Em"Bgf "A7"edc |1 "D"d3-d3 :|2 "D"d3-d2 ||
P:B
|:a | "D"agf fed | "D"Adf agf | "Em"gfe ecB | "A7"Ace gfe |\
"D"fed "Em"gfe | "D/F#"agf "G"bag | "D/A"fed "A7"Adc |1 "D"d3-d2 :|2 "D"d3-d3 |]

